flaticon/arrows/return-1.svg

<svg xmlns="http://www.w3.org/2000/svg" width="32" height="32" viewBox="0 0 24 24">
    <path d="M 13.363281 0 L 1.289062 0 C 1.011719 0 0.785156 0.226562 0.785156 0.503906 C 0.785156 0.78125 1.011719 1.007812 1.289062 1.007812 L 13.363281 1.007812 C 18.355469 1.007812 22.417969 5.070312 22.417969 10.0625 C 22.417969 15.054688 18.355469 19.117188 13.363281 19.117188 L 2.503906 19.117188 L 5.667969 15.949219 L 4.957031 15.238281 L 0.933594 19.261719 C 0.933594 19.265625 0.933594 19.265625 0.933594 19.265625 L 0.578125 19.621094 L 4.957031 24 L 5.667969 23.289062 L 2.503906 20.121094 L 13.363281 20.121094 C 18.910156 20.121094 23.421875 15.609375 23.421875 10.0625 C 23.421875 4.511719 18.910156 0 13.363281 0 Z M 13.363281 0"/>
</svg>

<svg xmlns="http://www.w3.org/2000/svg" width="32" height="32" viewBox="0 0 24 24">
    <path d="M13.363 0H1.29a.505.505 0 0 0 0 1.008h12.074c4.992 0 9.055 4.062 9.055 9.055 0 4.992-4.063 9.054-9.055 9.054H2.503l3.165-3.168-.711-.71-4.023 4.023v.004l-.356.355L4.957 24l.711-.71-3.164-3.169h10.86c5.546 0 10.058-4.512 10.058-10.058C23.422 4.511 18.91 0 13.363 0zm0 0"/>
</svg>
